(Generated with: DXF2GCODE)
(Version: Py3.10.12 PyQt5.15.6, Date: $Date$)
(Created from file: /home/schuldt/a/projects/cinva_ram/dxf/pusher_support_v2.dxf)
(Used Postprocessor: postpro_config.cfg) 
(Output format description: G-CODE for LinuxCNC)
(Time: Tue Nov  7 15:49:55 2023)
G21 (Units in millimeters)
G90 (Absolute programming)
G92 X0 Y0

(*** LAYER: Binder006 ***)
S11

(* SHAPE Nr: 0 *)
G0 X   4.350 Y  -0.600
M3 (plasma on)
G4 P1.5 (pause to pierce)
F450
G2 X   3.750 Y   0.000 I   0.000 J   0.600
G1 X   3.750 Y   7.147
G1 X   0.000 Y   7.147
G2 X  -0.600 Y   7.747 I   0.000 J   0.600
G1 X  -0.600 Y  20.047
G2 X   0.000 Y  20.647 I   0.600 J   0.000
G1 X   3.750 Y  20.647
G1 X   3.750 Y 148.100
G1 X   0.000 Y 148.100
G2 X  -0.600 Y 148.700 I   0.000 J   0.600
G1 X  -0.600 Y 167.550
G2 X   0.000 Y 168.150 I   0.600 J   0.000
G1 X  12.700 Y 168.150
G2 X  13.300 Y 167.550 I   0.000 J  -0.600
G1 X  13.300 Y 161.800
G1 X  95.000 Y 161.800
G1 X  95.000 Y 167.550
G2 X  95.600 Y 168.150 I   0.600 J   0.000
G1 X 108.300 Y 168.150
G2 X 108.900 Y 167.550 I   0.000 J  -0.600
G1 X 108.900 Y 148.700
G2 X 108.300 Y 148.100 I  -0.600 J   0.000
G1 X 104.550 Y 148.100
G1 X 104.550 Y  20.647
G1 X 108.300 Y  20.647
G2 X 108.900 Y  20.047 I   0.000 J  -0.600
G1 X 108.900 Y   7.747
G2 X 108.300 Y   7.147 I  -0.600 J   0.000
G1 X 104.550 Y   7.147
G1 X 104.550 Y   0.000
G2 X 103.950 Y  -0.600 I  -0.600 J   0.000
G1 X   4.350 Y  -0.600
M5 (plasma off)
G4 P0.6 (pause to finish and cool offf)
G0 X   0.000 Y   0.000
M2 (Program end)