(Generated with: DXF2GCODE)
(Version: Py3.10.12 PyQt5.15.6, Date: $Date$)
(Created from file: /home/schuldt/a/projects/cinva_ram/dxf/width_side_x2.dxf)
(Used Postprocessor: postpro_config.cfg) 
(Output format description: G-CODE for LinuxCNC)
(Time: Tue Nov  7 17:33:45 2023)
G21 (Units in millimeters)
G90 (Absolute programming)
G92 X0 Y0

(*** LAYER: Binder019 ***)
S11

(* SHAPE Nr: 0 *)
G0 X   0.000 Y   3.500
M3 (plasma on)
G4 P1.5 (pause to pierce)
F450
G2 X  -0.500 Y   4.000 I   0.000 J   0.500
G1 X  -0.500 Y 131.000
G2 X   0.000 Y 131.500 I   0.500 J   0.000
G1 X 423.700 Y 131.500
G1 X 423.700 Y 135.000
G2 X 424.200 Y 135.500 I   0.500 J   0.000
G1 X 430.550 Y 135.500
G2 X 431.050 Y 135.000 I   0.000 J  -0.500
G1 X 431.050 Y   0.000
G2 X 430.550 Y  -0.500 I  -0.500 J   0.000
G1 X 424.200 Y  -0.500
G2 X 423.700 Y   0.000 I   0.000 J   0.500
G1 X 423.700 Y   3.500
G1 X   0.000 Y   3.500
M5 (plasma off)
G4 P0.6 (pause to finish and cool offf)
G0 X   0.000 Y   0.000
M2 (Program end)